!! Cherubini, A first species counterpoint example, reprinted in:
!! J.H. Lewis "Counterpoint" Novello (London) -1893, p. 6
**kern	**kern
*M2/2	*M2/2
=1	=1
1C	1g
=2	=2
1F	1a
=3	=3
1E	1cc
=4	=4
1AA	1cc
=5	=5
1D	1b
=6	=6
1E	1g
=7	=7
1F	1a
=8	=8
1E	1cc
=9	=9
1C	1ee
=10	=10
1G	1dd
=11	=11
1F#	1dd
=12	=12
1A	1cc
=13	=13
1G	1dd
=14	=14
1G	1b
=15	=15
1E	1cc
=16	=16
1F	1a
=17	=17
1D	1b
=18	=18
1C	1cc
==	==
*-	*-
